stuff/config/qss/Default/imgs/black/segment_unlinked.svg

<?xml version="1.0" encoding="UTF-8" standalone="no"?><!DOCTYPE svg PUBLIC "-//W3C//DTD SVG 1.1//EN" "http://www.w3.org/Graphics/SVG/1.1/DTD/svg11.dtd"><svg width="100%" height="100%" viewBox="0 0 13 11" version="1.1" xmlns="http://www.w3.org/2000/svg" xmlns:xlink="http://www.w3.org/1999/xlink" xml:space="preserve" style="fill-rule:evenodd;clip-rule:evenodd;stroke-linejoin:round;stroke-miterlimit:1.41421;"><path d="M12,9l-4,0l0,-1l3,0l0,-3l-3,0l0,-1l4,0l0,5Zm-7,-4l-3,0l0,3l3,0l0,1l-4,0l0,-5l4,0l0,1Z" style="fill:#242424;"/></svg>

<?xml version="1.0" encoding="utf-8"?>
<!-- Generator: Adobe Illustrator 21.0.2, SVG Export Plug-In . SVG Version: 6.00 Build 0)  -->
<svg version="1.1"
	 id="svg2" inkscape:version="0.91 r13725" sodipodi:docname="segment_unlinked.svg" xmlns:cc="http://creativecommons.org/ns#" xmlns:dc="http://purl.org/dc/elements/1.1/" xmlns:inkscape="http://www.inkscape.org/namespaces/inkscape" xmlns:rdf="http://www.w3.org/1999/02/22-rdf-syntax-ns#" xmlns:sodipodi="http://sodipodi.sourceforge.net/DTD/sodipodi-0.dtd" xmlns:svg="http://www.w3.org/2000/svg"
	 xmlns="http://www.w3.org/2000/svg" xmlns:xlink="http://www.w3.org/1999/xlink" x="0px" y="0px" viewBox="0 0 13 11"
	 style="enable-background:new 0 0 13 11;" xml:space="preserve">
<style type="text/css">
	.st0{fill:#242424;}
</style>
<path id="path4" inkscape:connector-curvature="0" class="st0" d="M12,9H8V8h3V5H8V4h4V9z M5,5H2v3h3v1H1V4h4V5z"/>
</svg>
